!!!COM: Gomółka, Mikołaj
!!!CDT: ~1535-after 1591
!!!OTL: Głupi mówi
!!!OTL@LAT: Dixit insipiens
!!!AGn: Motet; Psalm
!!!SCn: Gom2014
!!!SCn: Gom2014
!!!voices: 4
**kern	**kern	**kern	**kern
*staff4	*staff3	*staff2	*staff1
*Ivox	*Ivox	*Ivox	*Ivox
*I"Bassus	*I"Tenor	*I"Altus	*I"Cantus
*I'B	*I'T	*I'A	*I'C
*clefF4	*clefGv2	*clefGv2	*clefG2
*k[b-]	*k[b-]	*k[b-]	*k[b-]
*M3/1	*M3/1	*M3/1	*M3/1
*met(O)	*met(O)	*met(O)	*met(O)
=1-	=1-	=1-	=1-
1r	1r	1r	1r
2D	2A	2d	2f#
2D	2A	2d	2f#
2D	2A	2d	2f#
[2D	[2d	[2f	[2a
=2	=2	=2	=2
2D]	4d]	4f]	2a]
.	4c	4e	.
2.G	1B-	1d	2.b-
4F	.	.	4a
2E-	2.c	1e-	2g
2C	.	.	1g
.	4B-	.	.
[2D	4A	[2d	.
.	4G	.	.
=3	=3	=3	=3
2D]	2A	4d]	2f#i
.	.	4c	.
2GG	2G	1Bn	2g
2GG	2G	.	2g
2r	2r	2r	2r
2D	2A	2d	2f#
2D	2A	2d	2f#
=4	=4	=4	=4
2D	2A	2d	2f#
1D	2.d	2.f	1a
.	4c	4e	.
2.G	1B-	1d	2.b-
4F	.	.	4a
2E-	[2c	[2e-	2g
=5	=5	=5	=5
2C	4c]	2e-]	1g
.	4B-	.	.
1D	4A	2.d	.
.	4G	.	.
.	2A	.	2f#i
.	.	4c	.
2GG	2G	1Bn	2g
2GG	2G	.	2g
2r	2r	2r	2r
=6	=6	=6	=6
2D	2d	2f	2a
2D	2d	2f	2a
2D	2d	2f	2a
2.A	1c	1e	2.cc
4G	.	.	4b-
[2F	2c	[2f	[2a
=7	=7	=7	=7
2F]	1f	4f]	1a]
.	.	4e	.
1B-	.	4d	.
.	.	4c	.
.	4e	2d	2g
.	4d	.	.
2A	2c#	2e	2a
2A	2c#	2e	2a
2r	2r	2r	2r
=8	=8	=8	=8
2D	2d	2f	2a
2D	2d	2f	2a
2D	2d	2f	2a
2.G	[1.B-	1d	2.b-
4F	.	.	4a
[2E-	.	[2e-	[2g
=9	=9	=9	=9
2E-]	2B-]	2e-]	2g]
1C	2.c	1e-	1g
.	4B-	.	.
1D	4A	2.d	1f#i
.	4G	.	.
.	2A	.	.
.	.	4c	.
2GG	2G	2Bni	2g
==	==	==	==
*-	*-	*-	*-
!!!CNT: Polish
!!!OCY: Poland
!!!LYR: Jan Kochanowski (1530-1584/08/22)
!!!GTL: Melodiae na Psałterz Polski
!!!EFL: 14/150
!!!PPR: Łazarz Andrysowicz
!!!PPP: Kraków
!!!PDT: 1580
!!!YEC: 2015 Marcin Konik
!!!ENC: Marcin Konik
!!!END: 2015/03/06
!!!EED: Marcin Konik
!!!EEV: 2015/03/06
!!!ONB: Translated from MusicXML and edited on 2015/03/06 by Marcin Konik
!!!CharacterEncoding: utf-8
!!muse2ps: i2I150v85,85,85,150Q16
!!title: @{OTL}, @{GTL}, ed. @{ENC}
